icons/themes/default/no-result.svg

<svg width="64" height="64" viewBox="0 0 64 64" fill="none" xmlns="http://www.w3.org/2000/svg">
<path d="M34 32.8574L48 36.8574M34 32.8574L48 28.8574L62 32.8574M34 32.8574V48.8574L48 52.8574M48 36.8574L62 32.8574M48 36.8574V52.8574M62 32.8574V48.8574L48 52.8574" stroke="#CCCECE" stroke-dasharray="4 3"/>
<path d="M18 10.8574L32 14.8574M18 10.8574L32 6.85742L46 10.8574M18 10.8574V26.8574L32 30.8574M32 14.8574L46 10.8574M32 14.8574V30.8574M46 10.8574V26.8574L32 30.8574" stroke="#CCCECE" stroke-dasharray="4 3"/>
<path d="M2 32.8574L16 36.8574M2 32.8574L16 28.8574L30 32.8574M2 32.8574V48.8574L16 52.8574M16 36.8574L30 32.8574M16 36.8574V52.8574M30 32.8574V48.8574L16 52.8574" stroke="#CCCECE" stroke-dasharray="4 3"/>
</svg>

<svg xmlns="http://www.w3.org/2000/svg" fill="none" viewBox="0 0 64 64">
  <path stroke="#CCCECE" stroke-dasharray="4 3" d="m34 32.857 14 4m-14-4 14-4 14 4m-28 0v16l14 4m0-16 14-4m-14 4v16m14-20v16l-14 4M18 10.857l14 4m-14-4 14-4 14 4m-28 0v16l14 4m0-16 14-4m-14 4v16m14-20v16l-14 4M2 32.857l14 4m-14-4 14-4 14 4m-28 0v16l14 4m0-16 14-4m-14 4v16m14-20v16l-14 4"/>
</svg>
